dhis-2/dhis-support/dhis-support-system/src/main/resources/SVGs/syringe_positive.svg

<svg width="48" height="48" viewBox="0 0 48 48" fill="none" xmlns="http://www.w3.org/2000/svg">
<path d="M22.8806 4.05274C22.8116 4.04704 22.7406 4.05364 22.6696 4.07424L17.6387 5.52152C17.3527 5.60392 17.1817 5.87992 17.2557 6.13672C17.3297 6.39371 17.6207 6.53141 17.9057 6.44921L18.9837 6.13872L20.6537 11.9359L18.4747 12.5639L16.5287 13.1229C16.2717 13.1969 16.1227 13.4639 16.1967 13.7209C16.2707 13.9779 16.5397 14.1239 16.7967 14.0509L18.7417 13.4919L19.3477 15.5919L20.1187 18.2709L23.7046 30.7287C24.1206 32.1717 25.4666 33.0807 26.9016 32.9997C26.9076 33.0777 26.8986 33.1537 26.9216 33.2317C27.0696 33.7467 27.5536 34.0487 28.0656 34.0137L30.8455 43.6715C30.9195 43.9285 31.1865 44.0735 31.4425 43.9995C31.6995 43.9255 31.8445 43.6605 31.7705 43.4035L28.9876 33.7357C29.4085 33.4827 29.6345 32.9857 29.4915 32.4897C29.4705 32.4167 29.4235 32.3627 29.3905 32.2987C30.6795 31.6147 31.3575 30.1067 30.9375 28.6457L27.3496 16.1889L26.5776 13.5099L25.9726 11.4079L27.9176 10.848C28.1746 10.774 28.3236 10.507 28.2496 10.25C28.1756 9.99297 27.9086 9.84797 27.6516 9.92187L25.7046 10.48L23.2006 11.203L21.5306 5.40622L22.9356 5.00203C23.2206 4.91963 23.3936 4.64743 23.3196 4.39064C23.2646 4.19794 23.0866 4.06984 22.8806 4.05274ZM20.6037 5.67192L22.2726 11.4689L21.5816 11.6679L19.9117 5.87112L20.6037 5.67192ZM25.0506 11.6739L26.4486 16.5309L24.8666 16.9859L23.4686 12.1289L25.0506 11.6739ZM22.5406 12.3959L23.9386 17.2539L23.2456 17.4529L21.8476 12.5959L22.5406 12.3959ZM20.9217 12.8629L22.3196 17.7209L21.0797 18.0759L19.6817 13.2209L20.9217 12.8629ZM27.0956 19.0389L27.3626 19.9648L26.3866 20.2458C26.1296 20.3198 25.8646 20.1728 25.7906 19.9158C25.7166 19.6588 25.8636 19.3938 26.1206 19.3198L27.0956 19.0389ZM27.4566 20.2908L27.6226 20.8708L22.1576 21.5548L21.9896 20.9748L27.4566 20.2908ZM27.6906 21.1018L27.9566 22.0268L26.9796 22.3088C26.7236 22.3828 26.4586 22.2358 26.3846 21.9788C26.3106 21.7218 26.4576 21.4568 26.7146 21.3828L27.6906 21.1018ZM23.6966 22.2968C23.8966 22.3208 24.0716 22.4608 24.1306 22.6658C24.2056 22.9258 24.0666 23.1998 23.8116 23.2928V23.2948C23.8006 23.2988 23.7906 23.3008 23.7786 23.3028C23.5056 23.3808 23.2186 23.2218 23.1406 22.9488C23.0616 22.6758 23.2206 22.3908 23.4936 22.3118C23.5616 22.2928 23.6306 22.2888 23.6966 22.2968ZM28.2846 23.1618L28.5526 24.0878L27.5736 24.3688C27.3166 24.4428 27.0516 24.2958 26.9786 24.0388C26.9046 23.7818 27.0496 23.5168 27.3066 23.4428L28.2846 23.1618ZM25.7726 24.4238C25.9226 24.4418 26.0556 24.5478 26.0996 24.7008C26.1586 24.9058 26.0396 25.1188 25.8356 25.1778C25.6306 25.2368 25.4156 25.1188 25.3566 24.9138C25.2976 24.7098 25.4166 24.4948 25.6206 24.4358C25.6716 24.4208 25.7236 24.4178 25.7726 24.4238ZM28.8806 25.2228L29.1476 26.1498L28.1676 26.4318C27.9106 26.5058 27.6436 26.3568 27.5696 26.0998C27.4956 25.8428 27.6436 25.5778 27.8996 25.5038L28.8806 25.2228ZM24.6446 26.4748C24.7886 26.4918 24.9176 26.5908 24.9606 26.7398C25.0146 26.9288 24.9146 27.1278 24.7296 27.1948C24.7216 27.1988 24.7116 27.2008 24.7026 27.2028C24.5046 27.2598 24.2986 27.1448 24.2416 26.9468C24.1856 26.7488 24.2996 26.5428 24.4976 26.4858C24.5476 26.4718 24.5956 26.4688 24.6446 26.4748ZM29.4745 27.2808L29.7415 28.2087L28.7616 28.4917C28.5046 28.5657 28.2376 28.4167 28.1636 28.1597C28.0896 27.9027 28.2366 27.6387 28.4936 27.5637L29.4745 27.2808ZM26.5326 28.1187C26.6996 28.0707 26.8736 28.1647 26.9216 28.3317C26.9696 28.4987 26.8736 28.6727 26.7066 28.7207C26.5396 28.7687 26.3656 28.6727 26.3176 28.5057C26.2696 28.3387 26.3666 28.1667 26.5326 28.1187ZM26.3686 30.2847C26.4846 30.2527 26.6056 30.3197 26.6386 30.4357C26.6696 30.5457 26.6106 30.6607 26.5036 30.7007C26.4986 30.7027 26.4946 30.7037 26.4896 30.7047C26.3736 30.7387 26.2526 30.6717 26.2186 30.5567C26.1846 30.4397 26.2516 30.3187 26.3686 30.2847ZM27.7746 30.8907C27.8916 30.8567 28.0136 30.9257 28.0466 31.0427C28.0776 31.1527 28.0186 31.2667 27.9116 31.3067V31.3087C27.9066 31.3097 27.9016 31.3107 27.8956 31.3117C27.7806 31.3447 27.6606 31.2767 27.6266 31.1617C27.5926 31.0457 27.6596 30.9247 27.7746 30.8907Z" fill="#333333"/>
</svg>

<?xml version="1.0" encoding="UTF-8" standalone="no"?>
<!-- Created with Inkscape (http://www.inkscape.org/) -->
<svg id="svg8" xmlns:rdf="http://www.w3.org/1999/02/22-rdf-syntax-ns#" xmlns="http://www.w3.org/2000/svg" xmlns:osb="http://www.openswatchbook.org/uri/2009/osb" height="48" width="48" version="1.1" xmlns:cc="http://creativecommons.org/ns#" viewBox="0 0 12.7 12.7" xmlns:dc="http://purl.org/dc/elements/1.1/">
 <title id="title4753">UIO-icon</title>
 <metadata id="metadata5">
  <rdf:RDF>
   <cc:Work rdf:about="">
    <dc:format>image/svg+xml</dc:format>
    <dc:type rdf:resource="http://purl.org/dc/dcmitype/StillImage"/>
    <dc:title>UIO-icon</dc:title>
    <dc:creator>
     <cc:Agent>
      <dc:title>Joaquín Urbano</dc:title>
     </cc:Agent>
    </dc:creator>
    <dc:rights>
     <cc:Agent>
      <dc:title>GPL</dc:title>
     </cc:Agent>
    </dc:rights>
   </cc:Work>
  </rdf:RDF>
 </metadata>
 <g id="layer1" transform="translate(0,-284.3)">
  <path id="rect910" d="m22.881 4.0527c-0.069-0.0057-0.14 0.0009-0.211 0.0215l-5.031 1.4473c-0.286 0.0824-0.457 0.3584-0.383 0.6152 0.074 0.257 0.365 0.3947 0.65 0.3125l1.078-0.3105 1.67 5.7973-2.179 0.628-1.946 0.559c-0.257 0.074-0.406 0.341-0.332 0.598s0.343 0.403 0.6 0.33l1.945-0.559 0.606 2.1 0.771 2.679 3.586 12.458c0.416 1.443 1.762 2.352 3.197 2.271 0.006 0.078-0.003 0.154 0.02 0.232 0.148 0.515 0.632 0.817 1.144 0.782l2.78 9.658c0.074 0.257 0.341 0.402 0.597 0.328 0.257-0.074 0.402-0.339 0.328-0.596l-2.783-9.668c0.421-0.253 0.647-0.75 0.504-1.246-0.021-0.073-0.068-0.127-0.101-0.191 1.289-0.684 1.967-2.192 1.547-3.653l-3.588-12.457-0.772-2.679-0.605-2.102 1.945-0.56c0.257-0.074 0.406-0.341 0.332-0.598s-0.341-0.402-0.598-0.3281l-1.947 0.5581-2.504 0.723-1.67-5.7968 1.405-0.4042c0.285-0.0824 0.458-0.3546 0.384-0.6114-0.055-0.1927-0.233-0.3208-0.439-0.3379zm-2.277 1.6192l1.669 5.7971-0.691 0.199-1.67-5.7969 0.692-0.1992zm4.447 6.0021l1.398 4.857-1.582 0.455-1.398-4.857 1.582-0.455zm-2.51 0.722l1.398 4.858-0.693 0.199-1.398-4.857 0.693-0.2zm-1.619 0.467l1.398 4.858-1.24 0.355-1.398-4.855 1.24-0.358zm6.174 6.176l0.267 0.926-0.976 0.281c-0.257 0.074-0.522-0.073-0.596-0.33s0.073-0.522 0.33-0.596l0.975-0.281zm0.361 1.252l0.166 0.58-5.465 0.684-0.168-0.58 5.467-0.684zm0.234 0.811l0.266 0.925-0.977 0.282c-0.256 0.074-0.521-0.073-0.595-0.33s0.073-0.522 0.33-0.596l0.976-0.281zm-3.994 1.195c0.2 0.024 0.375 0.164 0.434 0.369 0.075 0.26-0.064 0.534-0.319 0.627v0.002c-0.011 0.004-0.021 0.006-0.033 0.008-0.273 0.078-0.56-0.081-0.638-0.354-0.079-0.273 0.08-0.558 0.353-0.637 0.068-0.019 0.137-0.023 0.203-0.015zm4.588 0.865l0.268 0.926-0.979 0.281c-0.257 0.074-0.522-0.073-0.595-0.33-0.074-0.257 0.071-0.522 0.328-0.596l0.978-0.281zm-2.512 1.262c0.15 0.018 0.283 0.124 0.327 0.277 0.059 0.205-0.06 0.418-0.264 0.477-0.205 0.059-0.42-0.059-0.479-0.264-0.059-0.204 0.06-0.419 0.264-0.478 0.051-0.015 0.103-0.018 0.152-0.012zm3.108 0.799l0.267 0.927-0.98 0.282c-0.257 0.074-0.524-0.075-0.598-0.332s0.074-0.522 0.33-0.596l0.981-0.281zm-4.236 1.252c0.144 0.017 0.273 0.116 0.316 0.265 0.054 0.189-0.046 0.388-0.231 0.455-0.008 0.004-0.018 0.006-0.027 0.008-0.198 0.057-0.404-0.058-0.461-0.256-0.056-0.198 0.058-0.404 0.256-0.461 0.05-0.014 0.098-0.017 0.147-0.011zm4.83 0.806l0.267 0.928-0.98 0.283c-0.257 0.074-0.524-0.075-0.598-0.332s0.073-0.521 0.33-0.596l0.981-0.283zm-2.942 0.838c0.167-0.048 0.341 0.046 0.389 0.213s-0.048 0.341-0.215 0.389-0.341-0.048-0.389-0.215 0.049-0.339 0.215-0.387zm-0.164 2.166c0.116-0.032 0.237 0.035 0.27 0.151 0.031 0.11-0.028 0.225-0.135 0.265-0.005 0.002-0.009 0.003-0.014 0.004-0.116 0.034-0.237-0.033-0.271-0.148-0.034-0.117 0.033-0.238 0.15-0.272zm1.406 0.606c0.117-0.034 0.239 0.035 0.272 0.152 0.031 0.11-0.028 0.224-0.135 0.264v0.002c-0.005 0.001-0.01 0.002-0.016 0.003-0.115 0.033-0.235-0.035-0.269-0.15-0.034-0.116 0.033-0.237 0.148-0.271z" transform="matrix(.26458 0 0 .26458 0 284.3)" fill="#333"/>
 </g>
</svg>
